X:21
T:Best of Three. Roose.0199
T:New Way of Making Bairns,aka. Roose.0199, A
B:Roose MS, 1850
Z:Village Music Project 2019 Roger Hare
M:9/8
L:1/8
Q:3/8=80
K:G
|: z | G2 c BGB AFD | G2 c BGB g2 d | efg dcB AFD | G2 c BAB G2 :|
|: e/f/ | gfe dcB AFD | gfe def g2 d | efg dcB AFD | G2 c BAB G2 :|

